svg/emoji_u1f4ba.svg

<?xml version="1.0" encoding="UTF-8"?>
<svg width="128" height="128" enable-background="new 0 0 128 128" xmlns="http://www.w3.org/2000/svg"><path d="m94.39 123.95h-11.73c-1.1 0-2-0.9-2-2v-3.29c0-1.1 0.9-2 2-2h11.73c1.1 0 2 0.9 2 2v3.29c0 1.1-0.89 2-2 2z" fill="#546E7A"/><g opacity=".2"><path d="m94.39 118.66v3.29h-11.73v-3.29h11.73m0-2h-11.73c-1.1 0-2 0.9-2 2v3.29c0 1.1 0.9 2 2 2h11.73c1.1 0 2-0.9 2-2v-3.29c0-1.11-0.89-2-2-2z" fill="#424242"/></g><rect x="-381" y="-341.67" width="0" height=".67" fill="#F2F2F2"/><path d="m-89.5-251.17" fill="none" stroke="#f00" stroke-miterlimit="10" stroke-width=".25"/><path d="m-85.5-251.17" fill="none" stroke="#f00" stroke-miterlimit="10" stroke-width=".25"/><path d="m24-239.25" fill="none" stroke="#f00" stroke-miterlimit="10" stroke-width=".25"/><path d="m32.64-260.97" fill="none" stroke="#ED1E79" stroke-miterlimit="10" stroke-width=".25"/><path d="m45.7 123.95h-12c-1.1 0-2-0.9-2-2v-3.29c0-1.1 0.9-2 2-2h12c1.1 0 2 0.9 2 2v3.29c0 1.1-0.89 2-2 2z" fill="#546E7A"/><rect x="85.67" y="93" width="9.65" height="31" fill="#78909C"/><g opacity=".2"><path d="m93.32 97.18v19.42h-5.65v-19.42h5.65m2-2h-9.65v23.42h9.65v-23.42z" fill="#424242"/></g><linearGradient id="b" x1="64.317" x2="64.317" y1="97.356" y2="28.978" gradientUnits="userSpaceOnUse"><stop stop-color="#0288D1" offset="0"/><stop stop-color="#42A5F5" offset=".9989"/></linearGradient><path d="M92.02,93.65H36.43L31.19,56.7c-1.52-10.73-1.28-21.67,0.7-32.32l0.22-1.2 c1.63-8.75,8.81-15.04,17.14-15.04h30.05c8.26,0,15.4,6.19,17.11,14.85l0.12,0.63c2.2,11.14,2.47,22.62,0.81,33.87L92.02,93.65z" fill="url(#b)"/><path d="m77.97 87.71-28.38 0.39 1.82-13.36c0.51-4.1 0.39-8.25-0.37-12.31l-8-42.95c-0.7-6.1 4.3-11.42 10.72-11.42h20.88c6.4 0 11.4 5.3 10.72 11.39l-8.04 43.18c-0.73 3.93-0.87 7.95-0.41 11.93l1.06 13.15z" fill="#0277BD"/><path d="m92.03 26.67h-55.56c-2.21 0-4-1.79-4-4v-2.56c0-8.84 7.16-16 16-16h31.57c8.84 0 16 7.16 16 16v2.56c-0.01 2.21-1.8 4-4.01 4z" fill="#0277BD"/><path d="m75.08 21.16h-22.16c-2.21 0-4-1.79-4-4v-13.16h30.16v13.16c0 2.21-1.79 4-4 4z" fill="#eee"/><g opacity=".2"><path d="M78.85,7c7.84,0,14.14,6.43,14.14,14.33c0,0.55,0.11,1.07,0.37,1.51c0.02,0.11,0.02,0.22,0.04,0.33 l-0.03,0.24c-0.02,0.26-0.01,0.53,0.04,0.78c2.12,10.75,2.39,22.15,0.78,33.03L89.24,91h-50.4l-4.92-34.54 c-1.49-10.48-1.27-21.38,0.63-31.54c0.02-0.09,0.03-0.17,0.04-0.25l0.18-1.07c0.1-0.61,0.23-1.23,0.23-1.91v-0.41 C35,13.54,41.53,7,49.43,7H79 M79,4H49.43C39.96,4,32,11.8,32,21.27v0.41c0,0.49-0.11,0.99-0.21,1.5l-0.15,1.2 c-1.99,10.65-2.19,21.76-0.67,32.5L36.24,94h55.59l5.33-36.33c1.66-11.25,1.39-22.92-0.81-34.07l0.04-0.62 c-0.11-0.55-0.22-1.08-0.22-1.61l-0.11-0.04C96.07,11.86,88,4,79,4L79,4z" fill="#424242"/></g><rect x="33.32" y="93" width="9.65" height="31" fill="#78909C"/><g opacity=".2"><path d="m40.97 97.18v19.42h-5.65v-19.42h5.65m2-2h-9.65v23.42h9.65v-23.42z" fill="#424242"/></g><path d="m30.79 97.8h-2.02c-2.5 0-4.53-2.03-4.53-4.53v-20.18c0-2.5 2.03-4.53 4.53-4.53h2.02c2.5 0 4.53 2.03 4.53 4.53v20.18c0 2.5-2.03 4.53-4.53 4.53z" fill="#78909C"/><path d="m99.24 97.8h-2.02c-2.5 0-4.53-2.03-4.53-4.53v-20.18c0-2.5 2.03-4.53 4.53-4.53h2.02c2.5 0 4.53 2.03 4.53 4.53v20.18c0 2.5-2.03 4.53-4.53 4.53z" fill="#78909C"/><g opacity=".2"><path d="m30.79 70.56c1.39 0 2.53 1.13 2.53 2.53v20.18c0 1.39-1.13 2.53-2.53 2.53h-2.02c-1.39 0-2.53-1.13-2.53-2.53v-20.18c0-1.39 1.13-2.53 2.53-2.53h2.02m0-2h-2.02c-2.5 0-4.53 2.03-4.53 4.53v20.18c0 2.5 2.03 4.53 4.53 4.53h2.02c2.5 0 4.53-2.03 4.53-4.53v-20.18c0-2.5-2.03-4.53-4.53-4.53z" fill="#424242"/></g><g opacity=".2"><path d="m99.24 70.56c1.39 0 2.53 1.13 2.53 2.53v20.18c0 1.39-1.13 2.53-2.53 2.53h-2.02c-1.39 0-2.53-1.13-2.53-2.53v-20.18c0-1.39 1.13-2.53 2.53-2.53h2.02m0-2h-2.02c-2.5 0-4.53 2.03-4.53 4.53v20.18c0 2.5 2.03 4.53 4.53 4.53h2.02c2.5 0 4.53-2.03 4.53-4.53v-20.18c0-2.5-2.03-4.53-4.53-4.53z" fill="#424242"/></g><linearGradient id="a" x1="24.322" x2="104.08" y1="93.883" y2="93.883" gradientUnits="userSpaceOnUse"><stop stop-color="#0288D1" offset="0"/><stop stop-color="#42A5F5" offset=".9989"/></linearGradient><path d="m100.08 102.16h-71.76c-2.21 0-4-1.79-4-4v-8.56c0-2.21 1.79-4 4-4h71.76c2.21 0 4 1.79 4 4v8.56c0 2.21-1.79 4-4 4z" fill="url(#a)"/><path d="m34.79 75.27h-10.03c-1.1 0-2-0.9-2-2v-9.42c0-1.1 0.9-2 2-2h10.04c1.1 0 2 0.9 2 2v9.42c-0.01 1.1-0.9 2-2.01 2z" fill="#546E7A"/><path d="m103.24 75.27h-10.03c-1.1 0-2-0.9-2-2v-9.42c0-1.1 0.9-2 2-2h10.04c1.1 0 2 0.9 2 2v9.42c-0.01 1.1-0.9 2-2.01 2z" fill="#546E7A"/><g opacity=".2"><path d="m100.08 88.6c0.55 0 1 0.45 1 1v8.56c0 0.55-0.45 1-1 1h-71.76c-0.55 0-1-0.45-1-1v-8.56c0-0.55 0.45-1 1-1h71.76m0-3h-71.76c-2.21 0-4 1.79-4 4v8.56c0 2.21 1.79 4 4 4h71.76c2.21 0 4-1.79 4-4v-8.56c0-2.21-1.79-4-4-4z" fill="#424242"/></g><g opacity=".2"><path d="m34.79 63.85v9.42h-10.03v-9.42h10.03m0-2h-10.03c-1.1 0-2 0.9-2 2v9.42c0 1.1 0.9 2 2 2h10.04c1.1 0 2-0.9 2-2v-9.42c-0.01-1.11-0.9-2-2.01-2z" fill="#424242"/></g><g opacity=".2"><path d="m103.24 63.85v9.42h-10.03v-9.42h10.03m0-2h-10.03c-1.1 0-2 0.9-2 2v9.42c0 1.1 0.9 2 2 2h10.04c1.1 0 2-0.9 2-2v-9.42c-0.01-1.11-0.9-2-2.01-2z" fill="#424242"/></g><g opacity=".2"><path d="m45.7 118.66v3.29h-12v-3.29h12m0-2h-12c-1.1 0-2 0.9-2 2v3.29c0 1.1 0.9 2 2 2h12c1.1 0 2-0.9 2-2v-3.29c0-1.11-0.89-2-2-2z" fill="#424242"/></g></svg>

<svg width="128" height="128" style="enable-background:new 0 0 128 128;" xmlns="http://www.w3.org/2000/svg" xmlns:xlink="http://www.w3.org/1999/xlink">
  <path d="M94.39,123.95H82.66c-1.1,0-2-0.9-2-2v-3.29c0-1.1,0.9-2,2-2h11.73c1.1,0,2,0.9,2,2v3.29 C96.39,123.05,95.5,123.95,94.39,123.95z" style="fill:#546E7A;"/>
  <g style="opacity:0.2;">
    <path d="M94.39,118.66v3.29H82.66v-3.29H94.39 M94.39,116.66H82.66c-1.1,0-2,0.9-2,2v3.29c0,1.1,0.9,2,2,2 h11.73c1.1,0,2-0.9,2-2v-3.29C96.39,117.55,95.5,116.66,94.39,116.66L94.39,116.66z" style="fill:#424242;"/>
  </g>
  <rect height="0.67" style="fill:#F2F2F2;" width="0" x="-381" y="-341.67"/>
  <path d="M-89.5-251.17" style="fill:none;stroke:#FF0000;stroke-width:0.25;stroke-miterlimit:10;"/>
  <path d="M-85.5-251.17" style="fill:none;stroke:#FF0000;stroke-width:0.25;stroke-miterlimit:10;"/>
  <path d="M24-239.25" style="fill:none;stroke:#FF0000;stroke-width:0.25;stroke-miterlimit:10;"/>
  <path d="M32.64-260.97" style="fill:none;stroke:#ED1E79;stroke-width:0.25;stroke-miterlimit:10;"/>
  <path d="M45.7,123.95h-12c-1.1,0-2-0.9-2-2v-3.29c0-1.1,0.9-2,2-2h12c1.1,0,2,0.9,2,2v3.29 C47.7,123.05,46.81,123.95,45.7,123.95z" style="fill:#546E7A;"/>
  <g>
    <rect height="31" style="fill:#78909C;" width="9.65" x="85.67" y="93"/>
    <g style="opacity:0.2;">
      <path d="M93.32,97.18v19.42h-5.65V97.18H93.32 M95.32,95.18h-9.65v23.42h9.65V95.18L95.32,95.18z" style="fill:#424242;"/>
    </g>
    <linearGradient id="SVGID_1_" gradientUnits="userSpaceOnUse" x1="64.3166" x2="64.3166" y1="97.3558" y2="28.9782">
      <stop offset="0" style="stop-color:#0288D1"/>
      <stop offset="0.9989" style="stop-color:#42A5F5"/>
    </linearGradient>
    <path d="M92.02,93.65H36.43L31.19,56.7c-1.52-10.73-1.28-21.67,0.7-32.32l0.22-1.2 c1.63-8.75,8.81-15.04,17.14-15.04h30.05c8.26,0,15.4,6.19,17.11,14.85l0.12,0.63c2.2,11.14,2.47,22.62,0.81,33.87L92.02,93.65z" style="fill:url(#SVGID_1_);"/>
    <path d="M77.97,87.71L49.59,88.1l1.82-13.36c0.51-4.1,0.39-8.25-0.37-12.31l-8-42.95 c-0.7-6.1,4.3-11.42,10.72-11.42h20.88c6.4,0,11.4,5.3,10.72,11.39l-8.04,43.18c-0.73,3.93-0.87,7.95-0.41,11.93L77.97,87.71z" style="fill:#0277BD;"/>
    <path d="M92.03,26.67H36.47c-2.21,0-4-1.79-4-4v-2.56c0-8.84,7.16-16,16-16h31.57c8.84,0,16,7.16,16,16v2.56 C96.03,24.88,94.24,26.67,92.03,26.67z" style="fill:#0277BD;"/>
    <path d="M75.08,21.16H52.92c-2.21,0-4-1.79-4-4V4h30.16v13.16C79.08,19.37,77.29,21.16,75.08,21.16z" style="fill:#EEEEEE;"/>
    <g style="opacity:0.2;">
      <path d="M78.85,7c7.84,0,14.14,6.43,14.14,14.33c0,0.55,0.11,1.07,0.37,1.51c0.02,0.11,0.02,0.22,0.04,0.33 l-0.03,0.24c-0.02,0.26-0.01,0.53,0.04,0.78c2.12,10.75,2.39,22.15,0.78,33.03L89.24,91h-50.4l-4.92-34.54 c-1.49-10.48-1.27-21.38,0.63-31.54c0.02-0.09,0.03-0.17,0.04-0.25l0.18-1.07c0.1-0.61,0.23-1.23,0.23-1.91v-0.41 C35,13.54,41.53,7,49.43,7H79 M79,4H49.43C39.96,4,32,11.8,32,21.27v0.41c0,0.49-0.11,0.99-0.21,1.5l-0.15,1.2 c-1.99,10.65-2.19,21.76-0.67,32.5L36.24,94h55.59l5.33-36.33c1.66-11.25,1.39-22.92-0.81-34.07l0.04-0.62 c-0.11-0.55-0.22-1.08-0.22-1.61l-0.11-0.04C96.07,11.86,88,4,79,4L79,4z" style="fill:#424242;"/>
    </g>
    <rect height="31" style="fill:#78909C;" width="9.65" x="33.32" y="93"/>
    <g style="opacity:0.2;">
      <path d="M40.97,97.18v19.42h-5.65V97.18H40.97 M42.97,95.18h-9.65v23.42h9.65V95.18L42.97,95.18z" style="fill:#424242;"/>
    </g>
    <path d="M30.79,97.8h-2.02c-2.5,0-4.53-2.03-4.53-4.53V73.09c0-2.5,2.03-4.53,4.53-4.53h2.02 c2.5,0,4.53,2.03,4.53,4.53v20.18C35.32,95.77,33.29,97.8,30.79,97.8z" style="fill:#78909C;"/>
    <path d="M99.24,97.8h-2.02c-2.5,0-4.53-2.03-4.53-4.53V73.09c0-2.5,2.03-4.53,4.53-4.53h2.02 c2.5,0,4.53,2.03,4.53,4.53v20.18C103.77,95.77,101.74,97.8,99.24,97.8z" style="fill:#78909C;"/>
    <g style="opacity:0.2;">
      <path d="M30.79,70.56c1.39,0,2.53,1.13,2.53,2.53v20.18c0,1.39-1.13,2.53-2.53,2.53h-2.02 c-1.39,0-2.53-1.13-2.53-2.53V73.09c0-1.39,1.13-2.53,2.53-2.53H30.79 M30.79,68.56h-2.02c-2.5,0-4.53,2.03-4.53,4.53v20.18 c0,2.5,2.03,4.53,4.53,4.53h2.02c2.5,0,4.53-2.03,4.53-4.53V73.09C35.32,70.59,33.29,68.56,30.79,68.56L30.79,68.56z" style="fill:#424242;"/>
    </g>
    <g style="opacity:0.2;">
      <path d="M99.24,70.56c1.39,0,2.53,1.13,2.53,2.53v20.18c0,1.39-1.13,2.53-2.53,2.53h-2.02 c-1.39,0-2.53-1.13-2.53-2.53V73.09c0-1.39,1.13-2.53,2.53-2.53H99.24 M99.24,68.56h-2.02c-2.5,0-4.53,2.03-4.53,4.53v20.18 c0,2.5,2.03,4.53,4.53,4.53h2.02c2.5,0,4.53-2.03,4.53-4.53V73.09C103.77,70.59,101.74,68.56,99.24,68.56L99.24,68.56z" style="fill:#424242;"/>
    </g>
    <linearGradient id="SVGID_2_" gradientUnits="userSpaceOnUse" x1="24.3225" x2="104.0796" y1="93.883" y2="93.883">
      <stop offset="0" style="stop-color:#0288D1"/>
      <stop offset="0.9989" style="stop-color:#42A5F5"/>
    </linearGradient>
    <path d="M100.08,102.16H28.32c-2.21,0-4-1.79-4-4V89.6c0-2.21,1.79-4,4-4h71.76c2.21,0,4,1.79,4,4 v8.56C104.08,100.37,102.29,102.16,100.08,102.16z" style="fill:url(#SVGID_2_);"/>
    <path d="M34.79,75.27H24.76c-1.1,0-2-0.9-2-2v-9.42c0-1.1,0.9-2,2-2h10.04c1.1,0,2,0.9,2,2v9.42 C36.79,74.37,35.9,75.27,34.79,75.27z" style="fill:#546E7A;"/>
    <path d="M103.24,75.27H93.21c-1.1,0-2-0.9-2-2v-9.42c0-1.1,0.9-2,2-2h10.04c1.1,0,2,0.9,2,2v9.42 C105.24,74.37,104.35,75.27,103.24,75.27z" style="fill:#546E7A;"/>
    <g style="opacity:0.2;">
      <path d="M100.08,88.6c0.55,0,1,0.45,1,1v8.56c0,0.55-0.45,1-1,1H28.32c-0.55,0-1-0.45-1-1V89.6 c0-0.55,0.45-1,1-1H100.08 M100.08,85.6H28.32c-2.21,0-4,1.79-4,4v8.56c0,2.21,1.79,4,4,4h71.76c2.21,0,4-1.79,4-4V89.6 C104.08,87.39,102.29,85.6,100.08,85.6L100.08,85.6z" style="fill:#424242;"/>
    </g>
    <g style="opacity:0.2;">
      <path d="M34.79,63.85v9.42H24.76v-9.42H34.79 M34.79,61.85H24.76c-1.1,0-2,0.9-2,2v9.42c0,1.1,0.9,2,2,2 h10.04c1.1,0,2-0.9,2-2v-9.42C36.79,62.74,35.9,61.85,34.79,61.85L34.79,61.85z" style="fill:#424242;"/>
    </g>
    <g style="opacity:0.2;">
      <path d="M103.24,63.85v9.42H93.21v-9.42H103.24 M103.24,61.85H93.21c-1.1,0-2,0.9-2,2v9.42c0,1.1,0.9,2,2,2 h10.04c1.1,0,2-0.9,2-2v-9.42C105.24,62.74,104.35,61.85,103.24,61.85L103.24,61.85z" style="fill:#424242;"/>
    </g>
  </g>
  <g style="opacity:0.2;">
    <path d="M45.7,118.66v3.29h-12v-3.29H45.7 M45.7,116.66h-12c-1.1,0-2,0.9-2,2v3.29c0,1.1,0.9,2,2,2h12 c1.1,0,2-0.9,2-2v-3.29C47.7,117.55,46.81,116.66,45.7,116.66L45.7,116.66z" style="fill:#424242;"/>
  </g>
</svg>
